packages/ui-icons/src/Basic/16/Tracks_16.svg

<svg xmlns="http://www.w3.org/2000/svg" viewBox="0 0 20 20" style="enable-background:new 0 0 20 20" xml:space="preserve"><path d="M18 4.5c0-.8-.7-1.5-1.5-1.5S15 3.6 15 4.4v.1c0 .7.4 1.2 1 1.4v7.7c0 1.3-1.1 2.4-2.4 2.3h-.3c-1.3-.1-2.4-1.2-2.3-2.5V8.2C10.9 6.4 9.4 4.9 7.6 5h-.3C5.5 5 4 6.5 4 8.4V15c-.6.2-1.1.8-1 1.5 0 .8.7 1.5 1.5 1.5S6 17.3 6 16.5c0-.6-.4-1.2-1-1.4V8.4C5 7 6.1 6 7.3 6h.4C9 6 10 7 10 8.2v5.3c0 1.9 1.4 3.4 3.3 3.5h.3c1.9 0 3.4-1.5 3.4-3.4V5.9c.6-.2 1-.8 1-1.4zM4.5 17c-.3 0-.5-.3-.5-.5 0-.3.2-.5.5-.5s.5.2.5.5c0 .2-.2.5-.5.5z"/></svg>

<?xml version="1.0" encoding="utf-8"?>
<!-- Generator: Adobe Illustrator 23.0.1, SVG Export Plug-In . SVG Version: 6.00 Build 0)  -->
<svg version="1.1" id="Layer_1" xmlns="http://www.w3.org/2000/svg" xmlns:xlink="http://www.w3.org/1999/xlink" x="0px" y="0px"
	 viewBox="0 0 20 20" style="enable-background:new 0 0 20 20;" xml:space="preserve">
<path d="M18,4.5C18,3.7,17.3,3,16.5,3C15.7,3,15,3.6,15,4.4c0,0,0,0,0,0.1c0,0.7,0.4,1.2,1,1.4v7.7c0,0,0,0,0,0
	c0,1.3-1.1,2.4-2.4,2.3h-0.3c-1.3-0.1-2.4-1.2-2.3-2.5V8.2c0,0,0,0,0,0C10.9,6.4,9.4,4.9,7.6,5H7.3C5.5,5,4,6.5,4,8.4V15
	c-0.6,0.2-1.1,0.8-1,1.5C3,17.3,3.7,18,4.5,18C5.3,18,6,17.3,6,16.5c0,0,0,0,0,0c0-0.6-0.4-1.2-1-1.4V8.4c0,0,0,0,0,0
	C5,7,6.1,6,7.3,6h0.3c0,0,0.1,0,0.1,0C9,6,10,7,10,8.2v5.3c0,1.9,1.4,3.4,3.3,3.5h0.3c1.9,0,3.4-1.5,3.4-3.4V5.9
	C17.6,5.7,18,5.1,18,4.5z M4.5,17C4.2,17,4,16.7,4,16.5C4,16.2,4.2,16,4.5,16c0,0,0,0,0,0C4.8,16,5,16.2,5,16.5
	C5,16.7,4.8,17,4.5,17z"/>
</svg>
